assets/img/components/placeholder.svg

<svg width="272" height="148" viewBox="0 0 272 148" fill="none" xmlns="http://www.w3.org/2000/svg">
<rect width="272" height="148" fill="#EDEDED"/>
<path d="M136 29.7324C112.252 29.7324 93 49.5517 93 74C93 83.9678 96.2019 93.1647 101.602 100.564L139.14 61.9195H111.18V49.3631H159.967V99.5885H147.77V70.7926L110.23 109.439C117.412 114.983 126.333 118.268 136 118.268C159.748 118.268 179 98.4483 179 74C179 49.5516 159.748 29.7324 136 29.7324Z" fill="#BEC0C1"/>
<path d="M111.179 61.9194H139.14L125.159 76.3118L111.179 61.9194ZM159.966 49.3631V99.5884H147.769V70.7926L110.229 109.439C117.411 114.982 126.332 118.268 135.999 118.268C159.748 118.268 179 98.4482 179 73.9999C179 72.2276 178.887 70.4833 178.69 68.7654L159.966 49.3631Z" fill="#797C7F"/>
</svg>

<svg xmlns="http://www.w3.org/2000/svg" width="272" height="148" fill="none" viewBox="0 0 272 148"><path fill="#ededed" d="M0 0h272v148H0z"/><path fill="#bec0c1" d="M136 29.732c-23.748 0-43 19.82-43 44.268 0 9.968 3.202 19.165 8.602 26.564L139.14 61.92h-27.96V49.363h48.787V99.59H147.77V70.792l-37.54 38.646c7.182 5.544 16.103 8.829 25.77 8.829 23.748 0 43-19.82 43-44.268s-19.252-44.268-43-44.268"/><path fill="#797c7f" d="M111.179 61.92h27.961l-13.981 14.392zm48.787-12.557v50.225h-12.197V70.793l-37.54 38.646c7.182 5.543 16.103 8.829 25.77 8.829C159.748 118.268 179 98.448 179 74c0-1.772-.113-3.517-.31-5.235z"/></svg>
